packages/core/src/svgs/tokens/branded/AAVE.svg

<svg width="24" height="24" viewBox="0 0 24 24" fill="none" xmlns="http://www.w3.org/2000/svg">
<path d="M9.34499 17C10.4685 17 11.3792 16.1269 11.3792 15.05C11.3792 13.973 10.4685 13.0999 9.34499 13.0999C8.22153 13.0999 7.31077 13.973 7.31077 15.05C7.31077 16.1269 8.22153 17 9.34499 17Z" fill="#9391F7"/>
<path d="M14.6618 17C15.7853 17 16.6961 16.1269 16.6961 15.05C16.6961 13.973 15.7853 13.0999 14.6618 13.0999C13.5384 13.0999 12.6276 13.973 12.6276 15.05C12.6276 16.1269 13.5384 17 14.6618 17Z" fill="#9391F7"/>
<path d="M12 7C6.47661 7 1.99855 11.3745 2 16.7692H4.5547C4.5547 12.7263 7.86168 9.44853 12 9.44853C16.1383 9.44853 19.4453 12.7263 19.4453 16.7692H22C22.001 11.3745 17.5229 7 12 7Z" fill="#9391F7"/>
</svg>

<svg xmlns="http://www.w3.org/2000/svg" width="24" height="24" fill="none" viewBox="0 0 24 24">
    <path fill="#9391F7" d="M9.345 17c1.124 0 2.034-.873 2.034-1.95s-.91-1.95-2.034-1.95-2.034.873-2.034 1.95S8.22 17 9.345 17m5.317 0c1.123 0 2.034-.873 2.034-1.95s-.91-1.95-2.034-1.95-2.034.873-2.034 1.95.91 1.95 2.034 1.95"/>
    <path fill="#9391F7" d="M12 7C6.477 7 1.999 11.374 2 16.77h2.555c0-4.044 3.307-7.321 7.445-7.321s7.445 3.277 7.445 7.32H22C22.001 11.375 17.523 7 12 7"/>
</svg>
